Numix/64/mimetypes/image-x-xpixmap.svg

<?xml version="1.0" encoding="UTF-8" standalone="no"?>
<svg
   xmlns:dc="http://purl.org/dc/elements/1.1/"
   xmlns:cc="http://creativecommons.org/ns#"
   xmlns:rdf="http://www.w3.org/1999/02/22-rdf-syntax-ns#"
   xmlns:svg="http://www.w3.org/2000/svg"
   xmlns="http://www.w3.org/2000/svg"
   xmlns:sodipodi="http://sodipodi.sourceforge.net/DTD/sodipodi-0.dtd"
   xmlns:inkscape="http://www.inkscape.org/namespaces/inkscape"
   width="64px"
   height="64px"
   viewBox="0 0 64 64"
   version="1.1"
   id="svg2"
   inkscape:version="0.91 r13725"
   sodipodi:docname="image-x-xpixmap.svg">
  <metadata
     id="metadata25">
    <rdf:RDF>
      <cc:Work
         rdf:about="">
        <dc:format>image/svg+xml</dc:format>
        <dc:type
           rdf:resource="http://purl.org/dc/dcmitype/StillImage" />
      </cc:Work>
    </rdf:RDF>
  </metadata>
  <defs
     id="defs23" />
  <sodipodi:namedview
     pagecolor="#ffffff"
     bordercolor="#666666"
     borderopacity="1"
     objecttolerance="10"
     gridtolerance="10"
     guidetolerance="10"
     inkscape:pageopacity="0"
     inkscape:pageshadow="2"
     inkscape:window-width="1366"
     inkscape:window-height="704"
     id="namedview21"
     showgrid="false"
     inkscape:zoom="1"
     inkscape:cx="29.064503"
     inkscape:cy="8.4206297"
     inkscape:window-x="0"
     inkscape:window-y="27"
     inkscape:window-maximized="1"
     inkscape:current-layer="svg2">
    <inkscape:grid
       type="xygrid"
       id="grid4141" />
  </sodipodi:namedview>
  <g
     id="surface1">
    <path
       style=" stroke:none;fill-rule:nonzero;fill:rgb(21.960784%,63.921569%,30.588235%);fill-opacity:1;"
       d="M 10.671875 0 C 9.296875 0 8 1.355469 8 2.789062 L 8 61.210938 C 8 62.566406 9.375 64 10.671875 64 L 53.328125 64 C 54.625 64 56 62.566406 56 61.210938 L 56 18 L 38 0 Z M 10.671875 0 "
       id="path5" />
    <path
       style=" stroke:none;fill-rule:nonzero;fill:rgb(0%,0%,0%);fill-opacity:0.196078;"
       d="M 42 18 L 56 32 L 56 18 Z M 42 18 "
       id="path7" />
    <path
       style=" stroke:none;fill-rule:nonzero;fill:rgb(100%,100%,100%);fill-opacity:0.392157;"
       d="M 38 0 L 55.984375 18 L 40.757812 18 C 39.410156 18 38 16.574219 38 15.226562 Z M 38 0 "
       id="path9" />
    <path
       style="fill:#ffffff;fill-opacity:1;fill-rule:nonzero;stroke:none"
       d="M 23.289062,22 C 22.585938,22.066406 21.984375,22.8125 22,23.605469 l 0,16.828125 c 0.0078,0.828125 0.667969,1.574218 1.40625,1.566406 l 17.222656,0 C 41.355469,41.984375 41.992188,41.253906 42,40.433594 L 42,23.605469 C 42.015625,22.769531 41.371094,22.007812 40.628906,22 Z M 24,24 40,24 40,35.402344 35.296875,30.085938 32.316406,32.859375 28.386719,27.9375 24,33.597656 Z"
       id="path11"
       inkscape:connector-curvature="0"
       sodipodi:nodetypes="ccccccccccccccccc" />
    <path
       style=" stroke:none;fill-rule:nonzero;fill:rgb(0%,0%,0%);fill-opacity:0.196078;"
       d="M 8 48 L 8 61.335938 C 8 62.632812 9.375 64 10.664062 64 L 53.335938 64 C 54.625 64 56 62.632812 56 61.335938 L 56 48 Z M 8 48 "
       id="path13" />
    <path
       style="fill:#ffffff;fill-opacity:1;fill-rule:nonzero;stroke:none"
       d="m 39.652443,51.0625 c 0.624821,1.614549 1.216608,3.23729 1.822144,4.839844 0.654738,-1.635463 1.218253,-3.229211 1.888407,-4.839844 l 2.128597,0 c 0.40345,3.701462 0.678263,7.356816 0.774413,10.929688 l -2.364648,0 L 44.033876,53.5 42.419,58 l -1.844,0 -1.547887,-4.5 0.10354,8.492188 -2.364649,0 C 36.938463,58.28688 37.09297,54.670067 37.519702,51.0625 l 2.132741,0"
       id="path17"
       inkscape:connector-curvature="0"
       sodipodi:nodetypes="cccccccccccccc" />
    <path
       style="fill:#ffffff;fill-opacity:1;fill-rule:nonzero;stroke:none"
       d="m 30.878094,50.941406 c 1.446025,0 2.567878,0.285156 3.361919,0.859375 0.804967,0.566407 1.201987,1.5 1.201987,2.789063 0,1.3125 -0.404304,2.253906 -1.216558,2.84375 -0.801323,0.574218 -1.934103,0.871094 -3.40927,0.871094 l -0.801325,0 0,3.6875 -2.214847,0 0,-10.789063 c 1.044542,-0.205317 2.031435,-0.238925 3.078094,-0.261724 m 0.251324,1.886719 c -0.393245,-0.0047 -0.718805,0.03052 -1.114571,0.05469 l 0,3.527344 0.917881,0 c 0.724836,0 1.26755,-0.132812 1.635432,-0.402344 0.36788,-0.285156 0.549999,-0.761718 0.549999,-1.433593 0,-0.632813 -0.182119,-1.082031 -0.549999,-1.335938 -0.353313,-0.273437 -0.834107,-0.410156 -1.438742,-0.410156"
       id="path19"
       inkscape:connector-curvature="0"
       sodipodi:nodetypes="ccscsccccccccscscc" />
  </g>
  <path
     style="fill:#ffffff;fill-opacity:1;fill-rule:nonzero;stroke:none"
     d="M 23.396,62 C 22.774133,60.52658 22.035465,59.137592 21.349144,57.8125 20.577086,59.237539 19.881979,60.595082 19.229,62 L 16.7,62 c 0.95525,-2.020431 2.182304,-3.898193 3.31481,-5.785156 l -3.119821,-5.160157 2.56544,0 1.888715,3.503907 1.988122,-3.503907 2.393391,0 -3.047178,5.109376 C 23.940994,58.04797 25.016552,59.94697 25.918,62 l -2.522,0"
     id="path15"
     inkscape:connector-curvature="0"
     sodipodi:nodetypes="ccccccccccccc" />
</svg>

<svg xmlns="http://www.w3.org/2000/svg" viewBox="0 0 64 64">
 <g>
  <path d="m 10.672 0 c -1.375 0 -2.672 1.355 -2.672 2.789 l 0 58.42 c 0 1.355 1.375 2.789 2.672 2.789 l 42.656 0 c 1.297 0 2.672 -1.434 2.672 -2.789 l 0 -43.21 l -18 -18 m -27.328 0" style="fill:#37a34d;fill-opacity:1;stroke:none;fill-rule:nonzero"/>
  <path d="m 42 18 l 14 14 l 0 -14 m -14 0" style="fill:#000;fill-opacity:0.196;stroke:none;fill-rule:nonzero"/>
  <path d="m 38 0 l 17.984 18 l -15.227 0 c -1.348 0 -2.758 -1.426 -2.758 -2.773 m 0 -15.227" style="fill:#fff;fill-opacity:0.392;stroke:none;fill-rule:nonzero"/>
  <path d="m 23.289 22 c -0.703 0.066 -1.305 0.813 -1.289 1.605 l 0 16.828 c 0.008 0.828 0.668 1.574 1.406 1.566 l 17.223 0 c 0.727 -0.016 1.363 -0.746 1.371 -1.566 l 0 -16.828 c 0.016 -0.836 -0.629 -1.598 -1.371 -1.605 m -16.629 2 16 0 0 11.402 -4.703 -5.316 -2.98 2.773 -3.93 -4.922 -4.387 5.66" style="fill:#fff;fill-opacity:1;stroke:none;fill-rule:nonzero"/>
  <path d="m 8 48 l 0 13.336 c 0 1.297 1.375 2.664 2.664 2.664 l 42.672 0 c 1.289 0 2.664 -1.367 2.664 -2.664 l 0 -13.336 m -48 0" style="fill:#000;fill-opacity:0.196;stroke:none;fill-rule:nonzero"/>
  <path d="m 39.652 51.06 c 0.625 1.615 1.217 3.237 1.822 4.84 0.655 -1.635 1.218 -3.229 1.888 -4.84 l 2.129 0 c 0.403 3.701 0.678 7.357 0.774 10.93 l -2.365 0 l 0.133 -8.492 -1.615 4.5 l -1.844 0 -1.548 -4.5 0.104 8.492 -2.365 0 c 0.172 -3.705 0.327 -7.322 0.754 -10.93 l 2.133 0" style="fill:#fff;fill-opacity:1;stroke:none;fill-rule:nonzero"/>
  <path d="m 30.878 50.941 c 1.446 0 2.568 0.285 3.362 0.859 0.805 0.566 1.202 1.5 1.202 2.789 0 1.313 -0.404 2.254 -1.217 2.844 -0.801 0.574 -1.934 0.871 -3.409 0.871 l -0.801 0 0 3.688 -2.215 0 0 -10.789 c 1.045 -0.205 2.031 -0.239 3.078 -0.262 m 0.251 1.887 c -0.393 -0.005 -0.719 0.031 -1.115 0.055 l 0 3.527 0.918 0 c 0.725 0 1.268 -0.133 1.635 -0.402 0.368 -0.285 0.55 -0.762 0.55 -1.434 0 -0.633 -0.182 -1.082 -0.55 -1.336 -0.353 -0.273 -0.834 -0.41 -1.439 -0.41" style="fill:#fff;fill-opacity:1;stroke:none;fill-rule:nonzero"/>
 </g>
 <path d="m 23.396 62 c -0.622 -1.473 -1.361 -2.862 -2.047 -4.188 -0.772 1.425 -1.467 2.783 -2.12 4.188 l -2.529 0 c 0.955 -2.02 2.182 -3.898 3.315 -5.785 l -3.12 -5.16 2.565 0 1.889 3.504 1.988 -3.504 2.393 0 -3.047 5.109 c 1.258 1.884 2.333 3.783 3.235 5.836 l -2.522 0" style="fill:#fff;fill-opacity:1;stroke:none;fill-rule:nonzero"/>
</svg>
